src/assets/images/iconFour.svg

<svg width="32" height="32" viewBox="0 0 32 32" fill="none" xmlns="http://www.w3.org/2000/svg">
<g clip-path="url(#clip0_102_246)">
<path d="M15.9986 0C7.17665 0 0 7.16679 0 15.9766C0 24.7865 7.17665 31.9533 15.9986 31.9533C24.8205 31.9533 31.9972 24.7865 31.9972 15.9766C31.9972 7.16679 24.8205 0 15.9986 0ZM15.9986 31.6912C7.3234 31.6912 0.265279 24.6427 0.265279 15.9766C0.265279 7.31052 7.3234 0.264915 15.9986 0.264915C24.6738 0.264915 31.7319 7.31334 31.7319 15.9766C31.7319 24.6399 24.6738 31.6912 15.9986 31.6912Z" fill="#E23C18"/>
<path d="M15.9987 2.17847C8.38183 2.17847 2.18164 8.36733 2.18164 15.9766C2.18164 23.5858 8.37901 29.7747 15.9987 29.7747C23.6185 29.7747 29.8158 23.5858 29.8158 15.9766C29.8158 8.36733 23.6185 2.17847 15.9987 2.17847ZM15.9987 29.29C8.64711 29.29 2.66704 23.3181 2.66704 15.9766C2.66704 8.63506 8.64711 2.6632 15.9987 2.6632C23.3503 2.6632 29.3304 8.63506 29.3304 15.9766C29.3304 23.3181 23.3503 29.29 15.9987 29.29Z" fill="#E23C18"/>
<path d="M15.9989 4.35718C9.5842 4.35718 4.36328 9.57093 4.36328 15.9768C4.36328 22.3827 9.5842 27.5964 15.9989 27.5964C22.4135 27.5964 27.6345 22.3827 27.6345 15.9768C27.6345 9.57093 22.4164 4.35718 15.9989 4.35718ZM15.9989 26.8919C9.97083 26.8919 5.06881 21.9966 5.06881 15.9768C5.06881 9.95703 9.97365 5.06174 15.9989 5.06174C22.0241 5.06174 26.9289 9.95703 26.9289 15.9768C26.9289 21.9966 22.0241 26.8919 15.9989 26.8919Z" fill="#E23C18"/>
<path d="M15.999 6.53589C10.7866 6.53589 6.54492 10.7717 6.54492 15.977C6.54492 21.1823 10.7866 25.4181 15.999 25.4181C21.2115 25.4181 25.4531 21.1823 25.4531 15.977C25.4531 10.7717 21.2115 6.53589 15.999 6.53589ZM15.999 24.4937C11.2974 24.4937 7.47058 20.6722 7.47058 15.977C7.47058 11.2818 11.2974 7.46027 15.999 7.46027C20.7007 7.46027 24.5275 11.2818 24.5275 15.977C24.5275 20.6722 20.7007 24.4937 15.999 24.4937Z" fill="#E23C18"/>
<path d="M15.9992 8.7146C11.9889 8.7146 8.72656 11.9725 8.72656 15.9772C8.72656 19.9819 11.9889 23.2398 15.9992 23.2398C20.0094 23.2398 23.2718 19.9819 23.2718 15.9772C23.2718 11.9725 20.0094 8.7146 15.9992 8.7146ZM15.9992 22.0956C12.6211 22.0956 9.87234 19.3507 9.87234 15.9772C9.87234 12.6038 12.6211 9.85881 15.9992 9.85881C19.3772 9.85881 22.126 12.6038 22.126 15.9772C22.126 19.3507 19.3772 22.0956 15.9992 22.0956Z" fill="#E23C18"/>
<path d="M15.9993 10.8933C13.1913 10.8933 10.9082 13.1733 10.9082 15.9774C10.9082 18.7816 13.1913 21.0615 15.9993 21.0615C18.8073 21.0615 21.0904 18.7816 21.0904 15.9774C21.0904 13.1733 18.8073 10.8933 15.9993 10.8933ZM15.9993 19.6975C13.9448 19.6975 12.2741 18.0291 12.2741 15.9774C12.2741 13.9257 13.9448 12.2573 15.9993 12.2573C18.0538 12.2573 19.7245 13.9257 19.7245 15.9774C19.7245 18.0291 18.0538 19.6975 15.9993 19.6975Z" fill="#E23C18"/>
<path d="M15.9994 13.0737C14.3965 13.0737 13.0898 14.3758 13.0898 15.9793C13.0898 17.5829 14.3937 18.885 15.9994 18.885C17.6052 18.885 18.9091 17.5829 18.9091 15.9793C18.9091 14.3758 17.6052 13.0737 15.9994 13.0737ZM15.9994 17.2983C15.2713 17.2983 14.6759 16.7064 14.6759 15.9765C14.6759 15.2466 15.2685 14.6576 15.9994 14.6576C16.7304 14.6576 17.3202 15.2494 17.3202 15.9765C17.3202 16.7036 16.7276 17.2983 15.9994 17.2983Z" fill="#E23C18"/>
</g>
<defs>
<clipPath id="clip0_102_246">
<rect width="32" height="31.9561" fill="white"/>
</clipPath>
</defs>
</svg>

<svg width="32" height="32" fill="none" xmlns="http://www.w3.org/2000/svg"><g clip-path="url(#a)" fill="#E23C18"><path d="M15.999 0C7.177 0 0 7.167 0 15.977s7.177 15.976 15.999 15.976c8.821 0 15.998-7.166 15.998-15.976S24.82 0 16 0Zm0 31.691C7.323 31.691.265 24.643.265 15.977S7.323.265 16 .265c8.675 0 15.733 7.048 15.733 15.712 0 8.663-7.058 15.714-15.733 15.714Z"/><path d="M15.999 2.178c-7.617 0-13.817 6.19-13.817 13.799 0 7.609 6.197 13.798 13.817 13.798s13.817-6.19 13.817-13.798c0-7.61-6.197-13.799-13.817-13.799Zm0 27.112c-7.352 0-13.332-5.972-13.332-13.313 0-7.342 5.98-13.314 13.332-13.314 7.351 0 13.331 5.972 13.331 13.314 0 7.341-5.98 13.313-13.331 13.313Z"/><path d="M15.999 4.357c-6.415 0-11.636 5.214-11.636 11.62 0 6.406 5.221 11.62 11.636 11.62 6.414 0 11.635-5.214 11.635-11.62 0-6.406-5.218-11.62-11.635-11.62Zm0 22.535c-6.028 0-10.93-4.895-10.93-10.915S9.974 5.062 15.999 5.062c6.025 0 10.93 4.895 10.93 10.915s-4.905 10.915-10.93 10.915Z"/><path d="M15.999 6.536c-5.212 0-9.454 4.236-9.454 9.441 0 5.205 4.242 9.441 9.454 9.441 5.213 0 9.454-4.236 9.454-9.441 0-5.205-4.241-9.441-9.454-9.441Zm0 17.958c-4.702 0-8.528-3.822-8.528-8.517 0-4.695 3.826-8.517 8.528-8.517s8.528 3.822 8.528 8.517c0 4.695-3.826 8.517-8.528 8.517Z"/><path d="M16 8.715c-4.011 0-7.273 3.258-7.273 7.262 0 4.005 3.262 7.263 7.272 7.263s7.273-3.258 7.273-7.263-3.263-7.262-7.273-7.262Zm0 13.38c-3.379 0-6.128-2.744-6.128-6.118 0-3.373 2.75-6.118 6.127-6.118 3.378 0 6.127 2.745 6.127 6.118 0 3.374-2.749 6.119-6.127 6.119Z"/><path d="M16 10.893a5.092 5.092 0 0 0-5.092 5.084 5.092 5.092 0 0 0 10.182 0A5.092 5.092 0 0 0 16 10.893Zm0 8.805a3.726 3.726 0 0 1-3.726-3.72 3.726 3.726 0 0 1 7.45 0c0 2.051-1.67 3.72-3.725 3.72Z"/><path d="M16 13.074a2.911 2.911 0 0 0-2.91 2.905 2.91 2.91 0 0 0 5.82 0A2.91 2.91 0 0 0 16 13.074Zm0 4.224a1.32 1.32 0 1 1 0-2.64 1.32 1.32 0 1 1 0 2.64Z"/></g><defs><clipPath id="a"><path fill="#fff" d="M0 0h32v31.956H0z"/></clipPath></defs></svg>
